src/assets/tokens/smilee-honey.svg

<svg width="192" height="128" viewBox="0 0 192 128" fill="none" xmlns="http://www.w3.org/2000/svg">
<g clip-path="url(#clip0_21348_102130)">
<path d="M64 128C99.3462 128 128 99.3462 128 64C128 28.6538 99.3462 0 64 0C28.6538 0 0 28.6538 0 64C0 99.3462 28.6538 128 64 128Z" fill="#8177FF"/>
<path d="M59.2383 54.3525V28.8452L46.5784 28.8452C42.2282 36.1411 39.3844 44.6319 37.987 54.3525H59.2383Z" fill="#EFF3F2"/>
<path d="M68.7967 54.3525V28.8452L81.4566 28.8452C85.8068 36.1411 88.6506 44.6319 90.048 54.3525H68.7967Z" fill="#EFF3F2"/>
<path d="M106.039 66.2749C104.893 74.6693 102.623 81.6376 99.2246 87.1805C97.4614 90.7429 94.8654 93.6889 91.4843 96.0749C90.8862 96.4927 90.2694 96.8914 89.6346 97.2727C83.5617 101.319 75.8847 103.343 66.5964 103.343C65.9793 103.343 65.3689 103.336 64.7655 103.323C64.1554 103.336 63.5382 103.343 62.9143 103.343C51.4506 103.343 42.1363 100.02 34.9714 93.3752C27.8066 86.6261 23.5076 77.6965 21.8955 66.4827H37.1208V84.5493H90.6743V66.2749H106.039Z" fill="#EFF3F2"/>
<path d="M128 128C163.346 128 192 99.3462 192 64C192 28.6538 163.346 0 128 0C92.6538 0 64 28.6538 64 64C64 99.3462 92.6538 128 128 128Z" fill="#FEF3C7"/>
<path d="M109.734 93.88H99.918C98.2873 93.8952 96.679 93.4989 95.242 92.728C93.8417 91.9784 92.6609 90.8769 91.816 89.532L86.584 81.008C85.7571 79.7725 85.3215 78.3166 85.334 76.83C85.334 75.296 85.75 73.974 86.584 72.696L91.908 64.042L86.584 55.432C85.7653 54.1934 85.3304 52.7407 85.334 51.256C85.334 49.764 85.75 48.356 86.584 47.078L91.816 38.554C92.6479 37.1979 93.8319 36.0927 95.242 35.356C96.6769 34.5751 98.2843 34.1654 99.918 34.164H109.734L114.92 25.724C115.752 24.3686 116.936 23.2641 118.346 22.528C119.781 21.7464 121.388 21.336 123.022 21.334H132.978C134.69 21.334 136.218 21.718 137.654 22.528C139.054 23.2775 140.235 24.3791 141.08 25.724L146.312 34.164H156.128C157.842 34.164 159.368 34.546 160.804 35.356C162.205 36.1061 163.385 37.2083 164.23 38.554L169.416 47.078C170.25 48.358 170.666 49.722 170.666 51.256C170.666 52.79 170.25 54.154 169.416 55.432L164.092 64.042L169.416 72.696C170.25 73.976 170.666 75.338 170.666 76.83C170.671 78.3155 170.236 79.7691 169.416 81.008L164.23 89.532C163.398 90.8873 162.214 91.9918 160.804 92.728C159.365 93.4949 157.758 93.8909 156.128 93.88H146.312L141.08 102.32C140.248 103.675 139.064 104.78 137.654 105.516C136.215 106.282 134.608 106.678 132.978 106.666H123.02C121.389 106.682 119.781 106.286 118.344 105.516C116.944 104.766 115.763 103.665 114.918 102.32L109.734 93.88ZM146.312 59.78H156.266L161.36 51.256L156.266 42.73H146.312L141.08 51.256L146.312 59.78ZM123.162 72.568H132.884L138.07 64.042L132.884 55.518H123.162L117.976 64.042L123.162 72.568ZM123.162 46.994H132.884L138.21 38.34L133.024 29.944H123.068L117.884 38.34L123.208 46.994H123.162ZM114.966 51.254L109.78 42.73H99.964L94.778 51.256L99.964 59.78H109.78L114.966 51.254ZM114.966 76.83L109.78 68.306H99.826L94.732 76.83L99.918 85.354H109.734L114.92 76.83H114.966ZM123.162 81.092L117.836 89.702L123.022 98.142H132.978L138.164 89.702L132.838 81.092H123.116H123.162ZM146.312 85.354H156.128L161.314 76.83L156.128 68.306H146.312L141.08 76.83L146.312 85.354Z" fill="#D97706"/>
</g>
<defs>
<clipPath id="clip0_21348_102130">
<rect width="192" height="128" fill="white"/>
</clipPath>
</defs>
</svg>

<svg xmlns="http://www.w3.org/2000/svg" viewBox="0 0 192 128"><circle cx="64" cy="64" r="64" fill="#8177ff"/><path fill="#eff3f2" d="M59.238 54.353V28.845h-12.66c-4.35 7.296-7.194 15.787-8.591 25.508zm9.559 0V28.845h12.66c4.35 7.296 7.194 15.787 8.591 25.508zm37.242 11.922q-1.719 12.591-6.814 20.905c-1.764 3.563-4.36 6.509-7.74 8.895q-.905.63-1.85 1.198-9.108 6.07-23.038 6.07-.926 0-1.832-.02-.915.02-1.85.02-17.196 0-27.943-9.968c-7.165-6.749-11.465-15.678-13.076-26.892H37.12v18.066h53.553V66.275z"/><circle cx="64" cy="64" r="64" fill="#fef3c7" transform="translate(64)"/><path fill="#d97706" d="M109.734 93.88h-9.816a9.7 9.7 0 0 1-4.676-1.152 9.14 9.14 0 0 1-3.426-3.196l-5.232-8.524a7.4 7.4 0 0 1-1.25-4.178c0-1.534.416-2.856 1.25-4.134l5.324-8.654-5.324-8.61a7.54 7.54 0 0 1-1.25-4.176c0-1.492.416-2.9 1.25-4.178l5.232-8.524a8.8 8.8 0 0 1 3.426-3.198 9.8 9.8 0 0 1 4.676-1.192h9.816l5.186-8.44a8.8 8.8 0 0 1 3.426-3.196 9.8 9.8 0 0 1 4.676-1.194h9.956c1.712 0 3.24.384 4.676 1.194a9.14 9.14 0 0 1 3.426 3.196l5.232 8.44h9.816c1.714 0 3.24.382 4.676 1.192a9.14 9.14 0 0 1 3.426 3.198l5.186 8.524c.834 1.28 1.25 2.644 1.25 4.178s-.416 2.898-1.25 4.176l-5.324 8.61 5.324 8.654c.834 1.28 1.25 2.642 1.25 4.134a7.53 7.53 0 0 1-1.25 4.178l-5.186 8.524a8.8 8.8 0 0 1-3.426 3.196 9.8 9.8 0 0 1-4.676 1.152h-9.816l-5.232 8.44a8.8 8.8 0 0 1-3.426 3.196 9.8 9.8 0 0 1-4.676 1.15h-9.958a9.7 9.7 0 0 1-4.676-1.15 9.14 9.14 0 0 1-3.426-3.196zm36.578-34.1h9.954l5.094-8.524-5.094-8.526h-9.954l-5.232 8.526zm-23.15 12.788h9.722l5.186-8.526-5.186-8.524h-9.722l-5.186 8.524zm0-25.574h9.722l5.326-8.654-5.186-8.396h-9.956l-5.184 8.396 5.324 8.654zm-8.196 4.26-5.186-8.524h-9.816l-5.186 8.526 5.186 8.524h9.816zm0 25.576-5.186-8.524h-9.954l-5.094 8.524 5.186 8.524h9.816l5.186-8.524zm8.196 4.262-5.326 8.61 5.186 8.44h9.956l5.186-8.44-5.326-8.61h-9.722zm23.15 4.262h9.816l5.186-8.524-5.186-8.524h-9.816l-5.232 8.524z"/></svg>
